assets/media/img/about-22.svg

<svg width="39" height="39" viewBox="0 0 39 39" fill="none" xmlns="http://www.w3.org/2000/svg">
<path fill-rule="evenodd" clip-rule="evenodd" d="M21.2998 3C21.2998 4.10457 20.4044 5 19.2998 5C18.1952 5 17.2998 4.10457 17.2998 3C17.2998 1.89543 18.1952 1 19.2998 1C20.4044 1 21.2998 1.89543 21.2998 3ZM19.4143 5.99786C19.3763 5.99928 19.3381 6 19.2998 6C17.8381 6 16.6205 4.95459 16.354 3.57066C14.1288 3.98481 12.0655 4.85952 10.2667 6.09212C10.0726 5.81231 9.83208 5.5671 9.55633 5.36764C11.5448 3.97439 13.8453 2.99603 16.3321 2.5582C16.5457 1.11081 17.793 0 19.2998 0C20.9567 0 22.2998 1.34315 22.2998 3C22.2998 4.27131 21.509 5.35792 20.3925 5.79479L21.4587 10.0192C21.5706 10.0065 21.6845 10 21.7998 10C22.7637 10 23.6215 10.4546 24.1704 11.1612L28.0389 8.97567C27.885 8.61464 27.7998 8.21726 27.7998 7.79999C27.7998 7.16536 27.9969 6.57676 28.3331 6.09204C26.5343 4.85945 24.471 3.98476 22.2458 3.57063C22.2813 3.3859 22.3 3.19514 22.3 3.00003C22.3 2.84991 22.2889 2.70237 22.2677 2.55817C24.7545 2.99598 27.055 3.97433 29.0435 5.36756C29.5372 5.01047 30.1439 4.79999 30.7998 4.79999C32.4567 4.79999 33.7998 6.14313 33.7998 7.79999C33.7998 9.45684 32.4567 10.8 30.7998 10.8C29.9191 10.8 29.1269 10.4204 28.5781 9.81599L24.6427 12.0392C24.7446 12.3409 24.7998 12.664 24.7998 13C24.7998 13.2261 24.7748 13.4464 24.7274 13.6583L33.2319 17.4575C33.6696 16.8958 34.3028 16.4939 35.0293 16.3541C34.6152 14.1289 33.7405 12.0655 32.5079 10.2667C32.7877 10.0726 33.0329 9.83214 33.2323 9.55639C34.6256 11.5449 35.604 13.8455 36.0418 16.3324C37.489 16.5462 38.5996 17.7934 38.5996 19.3C38.5996 20.9568 37.2565 22.3 35.5996 22.3C35.5737 22.3 35.5479 22.2997 35.5222 22.299C35.548 22.2997 35.5738 22.3 35.5998 22.3C35.75 22.3 35.8976 22.289 36.0418 22.2677C35.604 24.7545 34.6256 27.0551 33.2323 29.0437C33.0329 28.7679 32.7877 28.5274 32.5079 28.3333C33.7405 26.5345 34.6152 24.4711 35.0294 22.2459C34.1762 22.0817 33.4517 21.5561 33.0214 20.8347L25.9365 23.683C25.9781 23.8821 26 24.0885 26 24.3C26 24.8355 25.8597 25.3382 25.6139 25.7734L28.8723 28.5011C29.3936 28.0635 30.0659 27.8 30.7998 27.8C32.4567 27.8 33.7998 29.1431 33.7998 30.8C33.7998 32.4568 32.4567 33.8 30.7998 33.8C30.1439 33.8 29.5372 33.5895 29.0435 33.2324C27.055 34.6257 24.7545 35.6041 22.2676 36.0419C22.2889 35.8977 22.3 35.7501 22.3 35.6C22.3 35.4049 22.2813 35.2141 22.2458 35.0294C24.471 34.6153 26.5344 33.7406 28.3332 32.508C27.9969 32.0232 27.7998 31.4346 27.7998 30.8C27.7998 30.2393 27.9536 29.7146 28.2213 29.2656L24.9809 26.553C24.4525 27.018 23.7592 27.3 23 27.3C22.8591 27.3 22.7205 27.2903 22.5848 27.2715L20.5992 32.8952C21.6054 33.3795 22.2998 34.4086 22.2998 35.6C22.2998 37.2568 20.9567 38.6 19.2998 38.6C17.7931 38.6 16.5458 37.4892 16.3321 36.0418C13.8453 35.604 11.5448 34.6257 9.55633 33.2324C9.83208 33.0329 10.0726 32.7877 10.2667 32.5079C12.0655 33.7405 14.1288 34.6152 16.354 35.0294C16.6205 33.6454 17.8381 32.6 19.2998 32.6C19.4147 32.6 19.528 32.6064 19.6395 32.619L21.6336 26.9714C21.1826 26.7403 20.7977 26.3983 20.5151 25.9814L10.7409 30.2056C10.7795 30.3977 10.7998 30.5965 10.7998 30.8C10.7998 32.4568 9.45666 33.8 7.7998 33.8C6.14295 33.8 4.7998 32.4568 4.7998 30.8C4.7998 30.144 5.01033 29.5373 5.36749 29.0435C3.97426 27.055 2.99591 24.7545 2.55811 22.2677L2.56013 22.268C1.1118 22.0552 0 20.8074 0 19.3C0 17.7933 1.11077 16.546 2.55812 16.3323C2.99593 13.8455 3.97428 11.545 5.36752 9.55649C5.01034 9.06275 4.7998 8.45595 4.7998 7.79999C4.7998 6.14313 6.14295 4.79999 7.7998 4.79999C9.45666 4.79999 10.7998 6.14313 10.7998 7.79999C10.7998 8.05997 10.7667 8.31223 10.7046 8.55278L19.2116 11.4821C19.5126 10.97 19.9612 10.5551 20.499 10.2959L19.4143 5.99786ZM18.8568 12.4151L10.2945 9.46685C10.1194 9.72832 9.90436 9.96074 9.65804 10.1553L11.742 14.4723C11.9537 14.425 12.1739 14.4 12.3999 14.4C13.4393 14.4 14.3552 14.9285 14.8935 15.7315L18.9004 13.7734C18.8348 13.5266 18.7998 13.2674 18.7998 13C18.7998 12.7999 18.8194 12.6043 18.8568 12.4151ZM10.3801 29.2687L20.0993 25.0683C20.0345 24.8231 20 24.5656 20 24.3C20 23.8835 20.0849 23.4869 20.2383 23.1264L14.6055 19.4336C14.0573 20.0278 13.2721 20.4 12.3999 20.4C12.3014 20.4 12.2041 20.3952 12.1081 20.386L9.34023 28.2251C9.76736 28.4812 10.1255 28.8406 10.3801 29.2687ZM15.1536 18.5923L20.7807 22.2814C21.1707 21.8529 21.6831 21.5378 22.2626 21.3913L21.7553 15.9997C20.74 15.9849 19.8469 15.4658 19.3151 14.6817L15.3034 16.6422C15.3664 16.8843 15.3999 17.1382 15.3999 17.4C15.3999 17.8237 15.3121 18.2269 15.1536 18.5923ZM9.65208 18.6058C9.94577 19.2741 10.4761 19.8148 11.137 20.122L8.40454 27.861C8.2092 27.821 8.00696 27.8 7.7998 27.8C7.16524 27.8 6.5767 27.997 6.092 28.3332C4.85941 26.5344 3.98472 24.4711 3.57058 22.2459C3.38591 22.2814 3.19521 22.3 3.00016 22.3C2.88939 22.3 2.78002 22.294 2.67237 22.2823C2.77997 22.294 2.88929 22.3 3 22.3C4.65685 22.3 6 20.9568 6 19.3L5.99989 19.2744L9.65208 18.6058ZM22.7437 15.8485C23.4137 15.6266 23.9791 15.1749 24.3463 14.5867L32.7554 18.3433C32.6544 18.6438 32.5996 18.9655 32.5996 19.3C32.5996 19.509 32.621 19.713 32.6617 19.91L25.5746 22.7592C25.0919 21.9544 24.2426 21.3947 23.2576 21.3109L22.7437 15.8485ZM37.5996 19.3C37.5996 20.4046 36.7042 21.3 35.5996 21.3C34.495 21.3 33.5996 20.4046 33.5996 19.3C33.5996 18.1954 34.495 17.3 35.5996 17.3C36.7042 17.3 37.5996 18.1954 37.5996 19.3ZM3 21.3C4.10457 21.3 5 20.4046 5 19.3C5 18.1954 4.10457 17.3 3 17.3C1.89543 17.3 1 18.1954 1 19.3C1 20.4046 1.89543 21.3 3 21.3ZM8.77529 10.6378C8.46947 10.7429 8.1413 10.8 7.7998 10.8C7.16526 10.8 6.57672 10.603 6.09203 10.2668C4.85942 12.0656 3.98472 14.1289 3.57058 16.3542C4.6184 16.5559 5.47217 17.3029 5.8251 18.2882L9.40875 17.6321C9.40289 17.5555 9.3999 17.4781 9.3999 17.4C9.3999 16.3266 9.96356 15.385 10.811 14.8548L8.77529 10.6378ZM9.7998 7.79999C9.7998 8.90456 8.90437 9.79999 7.7998 9.79999C6.69524 9.79999 5.7998 8.90456 5.7998 7.79999C5.7998 6.69542 6.69524 5.79999 7.7998 5.79999C8.90437 5.79999 9.7998 6.69542 9.7998 7.79999ZM21.7998 15C22.9044 15 23.7998 14.1046 23.7998 13C23.7998 11.8954 22.9044 11 21.7998 11C20.6952 11 19.7998 11.8954 19.7998 13C19.7998 14.1046 20.6952 15 21.7998 15ZM14.3999 17.4C14.3999 18.5045 13.5045 19.4 12.3999 19.4C11.2953 19.4 10.3999 18.5045 10.3999 17.4C10.3999 16.2954 11.2953 15.4 12.3999 15.4C13.5045 15.4 14.3999 16.2954 14.3999 17.4ZM23 26.3C24.1046 26.3 25 25.4046 25 24.3C25 23.1954 24.1046 22.3 23 22.3C21.8954 22.3 21 23.1954 21 24.3C21 25.4046 21.8954 26.3 23 26.3ZM9.7998 30.8C9.7998 31.9046 8.90437 32.8 7.7998 32.8C6.69524 32.8 5.7998 31.9046 5.7998 30.8C5.7998 29.6954 6.69524 28.8 7.7998 28.8C8.90437 28.8 9.7998 29.6954 9.7998 30.8ZM19.2998 37.6C20.4044 37.6 21.2998 36.7045 21.2998 35.6C21.2998 34.4954 20.4044 33.6 19.2998 33.6C18.1952 33.6 17.2998 34.4954 17.2998 35.6C17.2998 36.7045 18.1952 37.6 19.2998 37.6ZM32.7998 30.8C32.7998 31.9046 31.9044 32.8 30.7998 32.8C29.6952 32.8 28.7998 31.9046 28.7998 30.8C28.7998 29.6954 29.6952 28.8 30.7998 28.8C31.9044 28.8 32.7998 29.6954 32.7998 30.8ZM30.7998 9.79999C31.9044 9.79999 32.7998 8.90456 32.7998 7.79999C32.7998 6.69542 31.9044 5.79999 30.7998 5.79999C29.6952 5.79999 28.7998 6.69542 28.7998 7.79999C28.7998 8.90456 29.6952 9.79999 30.7998 9.79999Z" fill="#46403C"/>
</svg>

<svg width="39" height="39" fill="none" xmlns="http://www.w3.org/2000/svg"><path fill-rule="evenodd" clip-rule="evenodd" d="M21.3 3a2 2 0 11-4 0 2 2 0 014 0zm-1.886 2.998a3.001 3.001 0 01-3.06-2.427 15.912 15.912 0 00-6.087 2.521 3.017 3.017 0 00-.71-.724 16.908 16.908 0 016.775-2.81 3 3 0 114.06 3.237l1.067 4.224a2.995 2.995 0 012.712 1.142l3.868-2.185a2.991 2.991 0 01-.24-1.176c0-.635.198-1.223.534-1.708a15.912 15.912 0 00-6.087-2.521 3.021 3.021 0 00.022-1.013 16.908 16.908 0 016.776 2.81 3 3 0 11-.465 4.448l-3.936 2.223a2.997 2.997 0 01.084 1.62l8.505 3.798a3 3 0 011.797-1.103 15.912 15.912 0 00-2.521-6.087c.28-.194.525-.435.724-.71a16.907 16.907 0 012.81 6.775 3 3 0 110 5.936 16.908 16.908 0 01-2.81 6.776 3.015 3.015 0 00-.724-.71 15.913 15.913 0 002.521-6.088 3.003 3.003 0 01-2.008-1.411l-7.085 2.848a3.014 3.014 0 01-.322 2.09l3.258 2.728a3 3 0 11.171 4.731 16.907 16.907 0 01-6.775 2.81 3.023 3.023 0 00-.022-1.013 15.912 15.912 0 006.087-2.521A2.986 2.986 0 0127.8 30.8c0-.56.154-1.085.421-1.534l-3.24-2.713a2.988 2.988 0 01-2.396.718l-1.986 5.624a3 3 0 11-4.267 3.147 16.906 16.906 0 01-6.776-2.81c.276-.2.517-.444.71-.724a15.913 15.913 0 006.088 2.521 3.001 3.001 0 013.286-2.41l1.994-5.648a3.013 3.013 0 01-1.119-.99l-9.774 4.225a3 3 0 11-5.373-1.162 16.908 16.908 0 01-2.81-6.776h.002a3 3 0 01-.002-5.936 16.908 16.908 0 012.81-6.776 3 3 0 115.337-1.004l8.507 2.93c.3-.512.75-.927 1.287-1.186l-1.085-4.298zm-.557 6.417l-8.563-2.948c-.175.261-.39.494-.636.688l2.084 4.317a2.997 2.997 0 013.151 1.26l4.007-1.959a3.007 3.007 0 01-.043-1.358zM10.38 29.27l9.72-4.2a3.003 3.003 0 01.138-1.943l-5.633-3.692a2.992 2.992 0 01-2.497.952l-2.768 7.84c.427.255.786.615 1.04 1.043zm4.774-10.677l5.627 3.69a3 3 0 011.482-.89L21.755 16a2.997 2.997 0 01-2.44-1.318l-4.012 1.96a3.005 3.005 0 01-.15 1.95zm-5.502.014a3.012 3.012 0 001.485 1.516l-2.732 7.739a3.012 3.012 0 00-2.313.472 15.912 15.912 0 01-2.521-6.087A3.02 3.02 0 013 22.3a3 3 0 003-3v-.026l3.652-.668zm13.092-2.758a3.008 3.008 0 001.602-1.261l8.41 3.756a2.998 2.998 0 00-.094 1.567l-7.087 2.85a3 3 0 00-2.317-1.45l-.514-5.461zM37.6 19.3a2 2 0 11-4 0 2 2 0 014 0zM3 21.3a2 2 0 100-4 2 2 0 000 4zm5.775-10.662a2.996 2.996 0 01-.975.162 2.986 2.986 0 01-1.708-.533 15.911 15.911 0 00-2.521 6.087 3.005 3.005 0 012.254 1.934l3.584-.656a2.998 2.998 0 011.402-2.777l-2.036-4.217zM9.8 7.8a2 2 0 11-4 0 2 2 0 014 0zm12 7.2a2 2 0 100-4 2 2 0 000 4zm-7.4 2.4a2 2 0 11-4 0 2 2 0 014 0zm8.6 8.9a2 2 0 100-4 2 2 0 000 4zM9.8 30.8a2 2 0 11-4 0 2 2 0 014 0zm9.5 6.8a2 2 0 100-4 2 2 0 000 4zm13.5-6.8a2 2 0 11-4 0 2 2 0 014 0zm-2-21a2 2 0 100-4 2 2 0 000 4z" fill="#46403C"/></svg>
